src/general/components/img/giftCards.svg

<svg height="20" viewBox="0 0 29 20" width="29" xmlns="http://www.w3.org/2000/svg"><g fill="none" fill-rule="evenodd" stroke="#fff" stroke-width="1.4" transform="translate(1 1)"><path d="m24.8173364 17.7647727h-22.47381822c-.97363636 0-1.77054545-.7969091-1.77054545-1.7713636v-13.64972728c0-.97445455.79690909-1.77136364 1.77054545-1.77136364h22.47381822c.9736363 0 1.7713636.79690909 1.7713636 1.77136364v13.64972728c0 .9744545-.7977273 1.7713636-1.7713636 1.7713636z"/><path d="m9.23432727.39837273v17.19245457"/><path d="m.57305455 9.0612h26.01572725"/><path d="m10.0844182 4.3407c-1.09390911 1.09390909-.68072729 4.644-.68072729 4.644s3.54927269.41318182 4.64399999-.68154545c1.0947273-1.0939091 1.0947273-2.86854546 0-3.96245455s-2.8685454-1.09390909-3.9632727 0z"/><path d="m9.59547273 9.56659091c-.21763637 1.53245459 1.65599997 4.04999999 3.18845457 4.26681819" stroke-linecap="round"/><path d="m8.79725455 9.56659091c.21681818 1.53245459-1.4269091 4.04999999-2.95936364 4.26681819" stroke-linecap="round"/><path d="m8.38333636 4.3407c1.09472728 1.09390909.68072728 4.644.68072728 4.644s-3.54927273.41318182-4.644-.68154545c-1.09390909-1.0939091-1.09390909-2.86854546 0-3.96245455 1.09472727-1.09390909 2.86854545-1.09390909 3.96327272 0z"/></g></svg>

<?xml version="1.0" encoding="UTF-8"?>
<svg width="29px" height="20px" viewBox="0 0 29 20" version="1.1" xmlns="http://www.w3.org/2000/svg" xmlns:xlink="http://www.w3.org/1999/xlink">
    <!-- Generator: Sketch 48.2 (47327) - http://www.bohemiancoding.com/sketch -->
    <title>Page 1</title>
    <desc>Created with Sketch.</desc>
    <defs></defs>
    <g id="My-account-landing-Copy" stroke="none" stroke-width="1" fill="none" fill-rule="evenodd" transform="translate(-43.000000, -241.000000)">
        <g id="Order-History" transform="translate(20.000000, 242.000000)" stroke="#FFFFFF" stroke-width="1.4">
            <g id="Page-1" transform="translate(24.000000, 0.000000)">
                <path d="M24.8173364,17.7647727 L2.34351818,17.7647727 C1.36988182,17.7647727 0.572972727,16.9678636 0.572972727,15.9934091 L0.572972727,2.34368182 C0.572972727,1.36922727 1.36988182,0.572318182 2.34351818,0.572318182 L24.8173364,0.572318182 C25.7909727,0.572318182 26.5887,1.36922727 26.5887,2.34368182 L26.5887,15.9934091 C26.5887,16.9678636 25.7909727,17.7647727 24.8173364,17.7647727 Z" id="Stroke-1"></path>
                <path d="M9.23432727,0.398372727 L9.23432727,17.5908273" id="Stroke-3"></path>
                <path d="M0.573054545,9.0612 L26.5887818,9.0612" id="Stroke-5"></path>
                <path d="M10.0844182,4.3407 C8.99050909,5.43460909 9.40369091,8.9847 9.40369091,8.9847 C9.40369091,8.9847 12.9529636,9.39788182 14.0476909,8.30315455 C15.1424182,7.20924545 15.1424182,5.43460909 14.0476909,4.3407 C12.9529636,3.24679091 11.1791455,3.24679091 10.0844182,4.3407 Z" id="Stroke-7"></path>
                <path d="M9.59547273,9.56659091 C9.37783636,11.0990455 11.2514727,13.6165909 12.7839273,13.8334091" id="Stroke-9" stroke-linecap="round"></path>
                <path d="M8.79725455,9.56659091 C9.01407273,11.0990455 7.37034545,13.6165909 5.83789091,13.8334091" id="Stroke-11" stroke-linecap="round"></path>
                <path d="M8.38333636,4.3407 C9.47806364,5.43460909 9.06406364,8.9847 9.06406364,8.9847 C9.06406364,8.9847 5.51479091,9.39788182 4.42006364,8.30315455 C3.32615455,7.20924545 3.32615455,5.43460909 4.42006364,4.3407 C5.51479091,3.24679091 7.28860909,3.24679091 8.38333636,4.3407 Z" id="Stroke-13"></path>
            </g>
        </g>
    </g>
</svg>
